#define desk_toggled_width 21
#define desk_toggled_height 21
static unsigned char desk_toggled_bits[] = {
   0x00, 0x00, 0x00, 0x00, 0x00, 0x00, 0x00, 0x00, 0x00, 0x00, 0x00, 0x00,
   0x00, 0x00, 0x00, 0x00, 0x00, 0x00, 0x1c, 0x00, 0x07, 0x3c, 0x80, 0x07,
   0x78, 0xc0, 0x03, 0xf0, 0xe0, 0x01, 0xe0, 0xf1, 0x00, 0xc0, 0x7f, 0x00,
   0x80, 0x3f, 0x00, 0x00, 0x1f, 0x00, 0x00, 0x0e, 0x00, 0x00, 0x00, 0x00,
   0x00, 0x00, 0x00, 0x00, 0x00, 0x00, 0x00, 0x00, 0x00, 0x00, 0x00, 0x00,
   0x00, 0x00, 0x00 };
