#define desk_toggled_width 21
#define desk_toggled_height 21
static unsigned char desk_toggled_bits[] = {
   0x00, 0x00, 0x00, 0x00, 0x00, 0x00, 0x00, 0x00, 0x00, 0x80, 0x3f, 0x00,
   0xe0, 0xff, 0x00, 0xf0, 0xff, 0x01, 0xf0, 0xff, 0x01, 0xf8, 0xff, 0x03,
   0xf8, 0xff, 0x03, 0xf8, 0xff, 0x03, 0xf8, 0xff, 0x03, 0xf8, 0xff, 0x03,
   0xf8, 0xff, 0x03, 0xf8, 0xff, 0x03, 0xf0, 0xff, 0x01, 0xf0, 0xff, 0x01,
   0xe0, 0xff, 0x00, 0x80, 0x3f, 0x00, 0x00, 0x00, 0x00, 0x00, 0x00, 0x00,
   0x00, 0x00, 0x00 };
