#define shade_toggled_width 21
#define shade_toggled_height 21
static unsigned char shade_toggled_bits[] = {
   0x00, 0x00, 0x00, 0x00, 0x00, 0x00, 0x00, 0x00, 0x00, 0x80, 0x3f, 0x00,
   0xe0, 0xff, 0x00, 0xf0, 0xe0, 0x01, 0x30, 0x80, 0x01, 0x38, 0x80, 0x03,
   0x18, 0x00, 0x03, 0x18, 0x00, 0x03, 0x18, 0x00, 0x03, 0x18, 0x00, 0x03,
   0x18, 0x00, 0x03, 0x38, 0x80, 0x03, 0x30, 0x80, 0x01, 0xf0, 0xe0, 0x01,
   0xe0, 0xff, 0x00, 0x80, 0x3f, 0x00, 0x00, 0x00, 0x00, 0x00, 0x00, 0x00,
   0x00, 0x00, 0x00 };
