#define max_disabled_width 21
#define max_disabled_height 21
static unsigned char max_disabled_bits[] = {
   0x00, 0x00, 0x00, 0x00, 0x00, 0x00, 0x00, 0x00, 0x00, 0xe0, 0xff, 0x00,
   0xf0, 0xff, 0x01, 0xf8, 0xff, 0x03, 0xf8, 0xff, 0x03, 0xf8, 0xff, 0x03,
   0xf8, 0xff, 0x03, 0xf8, 0xff, 0x03, 0xf8, 0xff, 0x03, 0xf8, 0xff, 0x03,
   0xf8, 0xff, 0x03, 0xf8, 0xff, 0x03, 0xf8, 0xff, 0x03, 0xf8, 0xff, 0x03,
   0xf0, 0xff, 0x01, 0xe0, 0xff, 0x00, 0x00, 0x00, 0x00, 0x00, 0x00, 0x00,
   0x00, 0x00, 0x00 };
