#define shade_toggled_width 21
#define shade_toggled_height 21
static unsigned char shade_toggled_bits[] = {
   0x00, 0x00, 0x00, 0x00, 0x00, 0x00, 0x00, 0x00, 0x00, 0xc0, 0x7f, 0x00,
   0xf0, 0xff, 0x01, 0xf0, 0xff, 0x01, 0xf8, 0xff, 0x03, 0xf8, 0xff, 0x03,
   0xf8, 0xff, 0x03, 0xf8, 0xff, 0x03, 0xf8, 0xff, 0x03, 0xf8, 0xff, 0x03,
   0xf8, 0xff, 0x03, 0xf8, 0xff, 0x03, 0xf8, 0xff, 0x03, 0xf0, 0xff, 0x01,
   0xf0, 0xff, 0x01, 0xc0, 0x7f, 0x00, 0x00, 0x00, 0x00, 0x00, 0x00, 0x00,
   0x00, 0x00, 0x00 };
